X:1
T:Through all the changing scenes of life
T:John Wall Callcott
T:p38, The Psalms of David, ed. Samuel Arnold and John Wall Callcott, London: 1791
T:This edition by Edmund Gooch released into the public domain, January 2015.
T:Through all the changing scenes of life
T:Psalm XXXIV. C.M. Fifth Sunday in Lent. Evening
C:John Wall Callcott
Z:p38, The Psalms of David,
Z:ed. Samuel Arnold and
Z:John Wall Callcott,
Z:London: 1791
%%score [ 1 2 3 4 ]
L:1/8
M:3/2
K:F
V:1 treble nm="Soprano" snm="S."
V:2 treble nm="Alto" snm="A."
V:3 treble-8 transpose=-12 nm="Tenor" snm="T."
V:4 bass nm="Bass" snm="B."
V:1
 (c3 B) | (A3 G A4) d4 | (c6 B2) A4 | (G4 A4) B4 | (B4 A4) G4 | _A8 G4 | (A4 c4) =B4 | c8 (A3 G) | %8
w: Be- *|hold, _ _ say|they, _ be-|hold _ the|man _ Whom|Pro- vi-|dence _ re-|liev’d; So _|
w: Through _|all _ _ the|chang- * ing|scenes _ of|life, _ In|trou- ble|and _ in|joy, The _|
w: Of _|his _ _ de-|liv- * ’rance|I _ will|boast, _ Till|all that|are _ dis-|tress’d From _|
 (F4 B4) A4 | (G4 d4) c4 | (c4 B4) A4 | (A4 G4) d4 | (c4 E4) F4 | (G2 AB A4) G4 | F8 |] %15
w: dan- * g’rous-|ly _ with|woes _ be-|set, _ So|wond- * rous-|ly _ _ _ re-|triev’d!|
w: prai- * ses|of _ my|God _ shall|still _ My|heart _ and|tongue _ _ _ em-|ploy.|
w: my _ ex-|am- * ple|com- * fort|take, _ And|charm _ their|griefs _ _ _ to|rest.|
V:2
 (A3 G) | (F3 E F4) B4 | (A6 G2) F4 | F8 E4 | F8 E4 | F8 E4 | (D4 E4) F4 | E8 C4 | F8 F4 | %9
w: Be- *|hold, _ _ say|they, _ be-|hold the|man Whom|Pro- vi-|dence _ re-|liev’d; So|dan- g’rous-|
w: Through _|all _ _ the|chang- * ing|scenes of|life, In|trou- ble|and _ in|joy, The|prai- ses|
w: Of _|his _ _ de-|liv- * ’rance|I will|boast, Till|all that|are _ dis-|tress’d From|my ex-|
 (D4 B4) A4 | (A4 G4) F4 | (F4 E4) E4 | (F4 B,4) C4 | (B,3 G F4) E4 | F8 |] %15
w: ly _ with|woes _ be-|set, _ So|wond- * rous-|ly _ _ re-|triev’d!|
w: of _ my|God _ shall|still _ My|heart _ and|tongue _ _ em-|ploy.|
w: am- * ple|com- * fort|take, _ And|charm _ their|griefs _ _ to|rest.|
V:3
 c4 | c4 f8 | c8 F4 | d4 c8 | c8 c4 | c8 c4 | A4 G8 | G8 (F3 G) | (A4 B4) c4 | (d4 B4) c4 | %10
w: Be-|hold, say|they, be-|hold the|man Whom|Pro- vi-|dence re-|liev’d; So _|dan- * g’rous-|ly _ with|
w: Through|all the|chang- ing|scenes of|life, In|trou- ble|and in|joy, The _|prai- * ses|of _ my|
w: Of|his de-|liv- ’rance|I will|boast, Till|all that|are dis-|tress’d From _|my _ ex-|am- * ple|
 (d4 e4) f4 | c8 B4 | (c4 B4) A4 | (d4 c6) B2 | A8 |] %15
w: woes _ be-|set, So|wond- * rous-|ly _ re-|triev’d!|
w: God _ shall|still My|heart _ and|tongue _ em-|ploy.|
w: com- * fort|take, And|charm _ their|griefs _ to|rest.|
V:4
 C,4 | F,8 B,,4 |"^64""^53" C,8 D,4 |"^65" B,,4"^64""^73" C,8 |"^4""^3" F,8 C,4 |"^!" F,8 C4 | %6
w: Be-|hold, say|they, be-|hold the|man Whom|Pro- vi-|
w: Through|all the|chang- ing|scenes of|life, In|trou- ble|
w: Of|his de-|liv- ’rance|I will|boast, Till|all that|
"^6§" F,4"^64""^5§" G,8 | %7
w: dence re-|
w: and in|
w: are dis-|
"^Deliv’rance to his saints he gives,When his relief they crave:He’s nigh to heal the broken heart,And contrite spirit save.""^O make but trial of his love;Experience will decideHow blest they are, and only they,Who in his truth confide." C,8 (F,3 E,) | %8
w: liev’d; So _|
w: joy, The _|
w: tress’d From _|
 D,8"^64" C,4 | %9
w: dan- g’rous-|
w: prai- ses|
w: my ex-|
"^6" (B,,4 G,,4)"^Notes: The first verse only of the text is underlaid in the source, with theother verses given here printed after the music.The parts are identified inthe source as Treble, Counter, Tenor and Bass: the top three parts are inthe treble clef, with the Counter and Tenor an octave above sounding pitch.This setting is attributed ‘Callcott’ in the source, and is followed by thedirection ‘This Tune may be sung to any Psalm of Common Measure’." A,,4 | %10
w: ly _ with|
w: of _ my|
w: am- * ple|
"^97""^86" B,,8"^7" =B,,4 |"^64""^53" C,8"^43" B,4 |"^6" (A,4"^6" G,4) F,4 | %13
w: woes be-|set, So|wond- * rous-|
w: God shall|still My|heart _ and|
w: com- fort|take, And|charm _ their|
"^6" B,,4"^64""^53" C,8 | F,8 |] %15
w: ly re-|triev’d!|
w: tongue em-|ploy.|
w: griefs to|rest.|

